public/img/anti-feature-4.svg

<svg width="88" height="88" viewBox="0 0 88 88" fill="none" xmlns="http://www.w3.org/2000/svg">
<path d="M57.3949 36.2852C56.9376 35.8258 56.1952 35.8247 55.7358 36.2829C55.2777 36.7402 55.2753 37.4826 55.7335 37.9419L57.0561 39.2696L55.7276 40.5934C55.2694 41.0507 55.2671 41.7931 55.7253 42.2525C55.9544 42.4828 56.2547 42.5974 56.556 42.5974C56.8552 42.5974 57.1553 42.4827 57.3844 42.2548L58.712 40.9319L60.0358 42.2607C60.2649 42.491 60.5653 42.6057 60.8665 42.6057C61.1657 42.6057 61.4658 42.4921 61.6949 42.263C62.1531 41.8057 62.1554 41.0633 61.6973 40.6039L60.374 39.2757L61.7031 37.9513C62.1613 37.494 62.1637 36.7516 61.7055 36.2922C61.2482 35.8329 60.5057 35.8317 60.0464 36.2899L58.7182 37.6134L57.3949 36.2852Z" fill="black"/>
<path d="M53.9731 22.2934C55.9141 22.2934 57.4931 20.7144 57.4931 18.7734C57.4931 16.8324 55.9141 15.2534 53.9731 15.2534C52.0321 15.2534 50.4531 16.8324 50.4531 18.7734C50.4531 20.7144 52.0321 22.2934 53.9731 22.2934ZM53.9731 17.6001C54.6205 17.6001 55.1465 18.126 55.1465 18.7734C55.1465 19.4208 54.6205 19.9468 53.9731 19.9468C53.3257 19.9468 52.7998 19.4208 52.7998 18.7734C52.7998 18.126 53.3257 17.6001 53.9731 17.6001Z" fill="black"/>
<path d="M68.8748 31.2286C69.6017 31.1274 70.1088 30.4563 70.0079 29.7297C69.907 29.0031 69.2359 28.4956 68.509 28.5968C67.7821 28.698 67.2749 29.3689 67.3761 30.0958C67.477 30.8224 68.1482 31.3295 68.8748 31.2286Z" fill="black"/>
<path d="M76.2653 70.4001H15.7984L26.9797 63.3601H69.2253C69.8738 63.3601 70.3986 62.8354 70.3986 62.1868C70.3986 61.5382 69.8738 61.0135 69.2253 61.0135H30.7071L36.3159 57.482C36.3356 57.4832 36.3523 57.4935 36.3722 57.4935H63.3589C64.0075 57.4935 64.5322 56.9687 64.5322 56.3201C64.5322 55.6716 64.0075 55.1468 63.3589 55.1468H40.0251L43.7522 52.8001H58.6653C59.3138 52.8001 59.8386 52.2754 59.8386 51.6268C59.8386 50.9782 59.3138 50.4535 58.6653 50.4535H44.5853V32.8535C44.5853 32.2715 44.159 31.7775 43.5838 31.6927L11.9038 26.9994C11.568 26.9525 11.2245 27.0487 10.9654 27.2722C10.7076 27.4943 10.5586 27.8187 10.5586 28.1601V71.5735C10.5586 72.222 11.0834 72.7468 11.7319 72.7468H76.2653C76.9138 72.7468 77.4386 72.222 77.4386 71.5735C77.4386 70.9249 76.9138 70.4001 76.2653 70.4001ZM35.1986 45.2676V55.412L26.9853 60.5834V47.0927L35.1986 45.2676ZM26.9853 44.6883V31.6059L35.1986 32.8224V42.8629L26.9853 44.6883ZM42.2386 50.9794L37.5453 53.9344V44.7461L42.2386 43.703V50.9794ZM42.2386 41.2985L37.5453 42.3416V33.17L42.2386 33.8652V41.2985ZM24.6386 31.2583V45.2098L12.9053 47.8173V29.5206L24.6386 31.2583ZM12.9053 50.2217L24.6386 47.6143V62.061L12.9053 69.4488V50.2217Z" fill="black"/>
</svg>

<svg width="88" height="88" fill="none" xmlns="http://www.w3.org/2000/svg"><path d="M57.395 36.285a1.172 1.172 0 10-1.662 1.657l1.323 1.328-1.328 1.323a1.173 1.173 0 101.656 1.662l1.328-1.323 1.324 1.329a1.168 1.168 0 001.66.002c.457-.457.46-1.2.001-1.66l-1.323-1.327 1.33-1.325a1.173 1.173 0 10-1.658-1.661l-1.328 1.323-1.323-1.328zm-3.422-13.992a3.524 3.524 0 003.52-3.52 3.524 3.524 0 00-3.52-3.52 3.524 3.524 0 00-3.52 3.52 3.524 3.524 0 003.52 3.52zm0-4.693a1.174 1.174 0 11-.001 2.348 1.174 1.174 0 01.001-2.348zm14.902 13.629a1.329 1.329 0 10-.367-2.633 1.329 1.329 0 00.367 2.633zm7.39 39.171H15.798l11.182-7.04h42.245a1.173 1.173 0 100-2.346H30.707l5.609-3.532c.02.001.036.011.056.011H63.36a1.173 1.173 0 100-2.346H40.025l3.727-2.347h14.913a1.173 1.173 0 100-2.346h-14.08v-17.6c0-.582-.426-1.076-1.001-1.161l-31.68-4.694a1.173 1.173 0 00-1.345 1.16v43.414c0 .649.524 1.174 1.173 1.174h64.533a1.173 1.173 0 100-2.347zM35.2 45.268v10.144l-8.214 5.171v-13.49l8.214-1.825zm-8.214-.58V31.606l8.214 1.216v10.04l-8.214 1.826zM42.24 50.98l-4.694 2.955v-9.188l4.694-1.043v7.276zm0-9.68l-4.694 1.043V33.17l4.694.695v7.433zm-17.6-10.04v13.95l-11.734 2.608V29.521l11.734 1.737zM12.905 50.221l11.734-2.608V62.06l-11.734 7.388V50.222z" fill="#000"/></svg>
